X:1
T:Title
%%score { ( 1 3 ) | 2 }
L:1/8
M:6/8
K:G
V:1 treble nm="Grand Piano"
V:3 treble 
V:2 bass 
V:1
 z3 z2[Q:1/4=100] D | B2 B B>cB | d3 A2 B | c2 c B2 A |[M:5/8] [B,G]-[B,G]- [B,G]3 |[M:1/8] [=FG] | %6
[M:3/4] [EG]2 [Ec][Ec]- [Ec]/E/G | D2 B B2 B | BA A ^c2 c |[M:5/8] [Fd]-[Fd]- [Fd]3 |[M:1/8] [Fd] | %11
[M:3/4] d2 dd- d/B/G | G3 F2 F | c2 cc- c/A/F |[M:5/8] [CE]3 [B,D]2 |[M:1/8] [B,D] | %16
[M:3/4] d2 dd- d/B/[DG] |[M:7/8] E2- [EB] [Ec]3 [Ge] |[M:3/4] [Gd]2 [B,DG] [DGB]2 [CDA] | %19
[M:5/8] [B,DG]-[B,DG]- [B,DG]3 |] %20
V:2
 z3 z2 [G,B,] | [G,D]2 [G,D] [G,D]>[G,E][G,D] | [F,A,D]3 [D,F,D]2 [D,G,D] | %3
 [D,A,D]2 [D,A,D] [D,G,D]2 [D,F,C] |[M:5/8] [G,,G,]-[G,,G,]- [G,,G,]3 |[M:1/8] [B,,G,] | %6
[M:3/4] [C,C]2 [C,G,][C,G,]- [C,G,]/[C,G,C]/[E,G,C] | [G,B,]2[K:treble] [G,D] [G,D]2 [G,DG] | %8
 [A,^CG][A,CG] [A,CG] [A,EG]2 [A,G] |[M:5/8][K:bass] [D,A,]-[D,A,]- [D,A,]3 |[M:1/8] [D,C] | %11
[M:3/4][K:treble] [G,B,G]2 [G,B,G][G,B,G]- [G,B,G]/[G,DG]/[K:bass][G,B,D] | %12
 [D,B,D]3 [D,A,D]2 [D,A,D] | [D,A,D]2 [D,A,D][D,A,D]- [D,A,D]/[D,F,D]/[D,C] | %14
[M:5/8] [G,,G,]3 [G,,G,]2 |[M:1/8] [G,,G,] | %16
[M:3/4] [G,B,D]2 [G,B,D][G,B,D]- [G,B,D]/[G,D]/[B,,G,] |[M:7/8] [C,G,]2 [B,,^G,] [A,,A,]3 [C,G,] | %18
[M:3/4] [D,B,]2 D, D,2 D, |[M:5/8] G,,-G,,- G,,3 |] %20
V:3
 x6 | x6 | x6 | x6 |[M:5/8] x5 |[M:1/8] x |[M:3/4] x6 | x6 | x6 |[M:5/8] x5 |[M:1/8] x | %11
[M:3/4] x6 | x6 | x6 |[M:5/8] x5 |[M:1/8] x |[M:3/4] x6 |[M:7/8] A2 z z z z2 |[M:3/4] x6 | %19
[M:5/8] x5 |] %20

